X:43
T:Swaines Hornpipe. JBu.43
O:England,South Yorkshire
S:Joshua Burnett’s MS,c1835,S.Yorkshire
M:C
L:1/8
Q:1/2=90
R:.hornpipe
Z:vmp.R.Greig.2011
K:A
e2|a2ec dBec|(dc)BA (GF)ED|(CE)AG (FA)dc|BAGA B2e2|
a2 ec dBec|(dc)BA (GF)ED|(CE)AG (Fd)BG|A2A2A2:|
|:BA|(GA)Bc (dc)BA|GABG E2cd|e2fg agfe|defd e2fg|
(af)dB (ge)cA|(fd)BG (dA)FD|(ea)fd (cA)BG|A2A2A2:|

